packages/illustrations/src/drop-files-out.svg

<svg width="125" height="124" viewBox="0 0 125 124" fill="none" xmlns="http://www.w3.org/2000/svg">
<circle opacity="0.5" cx="60.5" cy="72.614" r="43" fill="#EBEEF1" stroke="#B7C2CE"/>
<path d="M27.5 57.114C27.5 55.181 29.067 53.614 31 53.614H48.3967C49.8651 53.614 51.2412 54.3305 52.0833 55.5334L52.5975 56.2681C53.6267 57.7384 55.3086 58.614 57.1033 58.614H90.5825C92.4871 58.614 94.042 60.1369 94.0817 62.0411L94.4895 81.614H27.5V57.114Z" fill="#EBEEF1" stroke="#B7C2CE"/>
<path d="M44.9829 56.5065L19.3458 70.0571C19.1013 70.1863 18.7983 70.0925 18.6696 69.8477L0.981495 36.2113C0.853161 35.9673 0.946615 35.6654 1.19039 35.5366L18.4039 26.4383C19.167 26.035 20.0522 25.9278 20.8894 26.1374L29.2946 28.2417C30.2587 28.483 31.0746 29.1228 31.539 30.0014L45.1913 55.8308C45.3203 56.0749 45.227 56.3775 44.9829 56.5065Z" fill="white" stroke="#B7C2CE" stroke-linejoin="round"/>
<path d="M22.3102 32.8503L18.8454 26.1439C18.7662 25.9905 18.9055 25.8155 19.0728 25.8584L31.1129 28.9455C31.2901 28.9909 31.3184 29.2306 31.1567 29.316L23.6659 33.2754C23.1744 33.5351 22.5653 33.3442 22.3102 32.8503Z" fill="#B7C2CE"/>
<rect x="5.40723" y="37.2706" width="14" height="1" rx="0.5" transform="rotate(-27.8589 5.40723 37.2706)" fill="#B7C2CE"/>
<rect x="6.80737" y="39.9198" width="8" height="1" rx="0.5" transform="rotate(-27.8589 6.80737 39.9198)" fill="#B7C2CE"/>
<g clip-path="url(#clip0_1359_36875)">
<path d="M30.3325 39.7522C29.7095 39.0821 28.7681 38.7918 27.8758 38.9943C26.2426 39.3581 20.5348 42.375 20.5348 42.375C20.5348 42.375 14.8272 45.3917 13.5989 46.5216C12.9439 47.1366 12.6464 48.101 12.8492 48.9931C13.2278 50.6184 14.7918 53.5774 14.7918 53.5774C14.7918 53.5774 16.3637 56.5513 17.4854 57.7647C18.1086 58.4346 19.0498 58.725 19.9421 58.5224C21.5904 58.1509 27.2831 55.142 27.2831 55.142C27.2831 55.142 32.9907 52.1252 34.2191 50.9954C34.8891 50.3723 35.1794 49.431 34.9769 48.5387C34.5981 46.9134 33.0342 43.9545 33.0342 43.9545C33.0342 43.9545 31.4773 40.9725 30.3325 39.7522ZM23.5365 52.4527L20.6468 46.9854L26.8379 47.2104L23.5365 52.4527Z" fill="#B7C2CE"/>
</g>
<path d="M76.9355 54.998L48.0408 52.5544C47.7652 52.5311 47.5609 52.2885 47.5848 52.013L50.867 14.1514C50.8908 13.8767 51.1325 13.6731 51.4073 13.6963L70.8081 15.337C71.6681 15.4098 72.471 15.7977 73.0624 16.4264L78.9994 22.7372C79.6804 23.461 80.0215 24.4401 79.9378 25.4304L77.4759 54.5419C77.4526 54.8171 77.2107 55.0213 76.9355 54.998Z" fill="white" stroke="#B7C2CE" stroke-linejoin="round"/>
<path d="M70.6321 22.8431L71.3386 15.3278C71.3548 15.1559 71.5666 15.0839 71.6842 15.2103L80.1495 24.3117C80.274 24.4456 80.1684 24.6626 79.9862 24.6472L71.5435 23.9332C70.9895 23.8863 70.5801 23.3966 70.6321 22.8431Z" fill="#B7C2CE"/>
<rect x="54.0195" y="17.4333" width="14" height="1" rx="0.5" transform="rotate(4.83392 54.0195 17.4333)" fill="#B7C2CE"/>
<rect x="53.7666" y="20.4226" width="14" height="1" rx="0.5" transform="rotate(4.83392 53.7666 20.4226)" fill="#B7C2CE"/>
<rect x="51.5757" y="46.3302" width="14" height="1" rx="0.5" transform="rotate(4.83392 51.5757 46.3302)" fill="#B7C2CE"/>
<rect x="53.5139" y="23.412" width="12.019" height="1" rx="0.5" transform="rotate(4.83392 53.5139 23.412)" fill="#B7C2CE"/>
<rect x="51.323" y="49.3195" width="24" height="1" rx="0.5" transform="rotate(4.83392 51.323 49.3195)" fill="#B7C2CE"/>
<rect x="53.0925" y="28.3942" width="24" height="16" rx="1" transform="rotate(4.83392 53.0925 28.3942)" fill="#EBEEF1"/>
<circle cx="58.734" cy="32.8855" r="2" transform="rotate(4.83392 58.734 32.8855)" fill="#B7C2CE"/>
<path d="M58.972 37.3826L54.6559 41.7534C54.358 42.055 54.5471 42.5672 54.9695 42.6029L62.8065 43.2657C63.2289 43.3014 63.5013 42.8282 63.2583 42.4809L59.7375 37.4473C59.5585 37.1914 59.1914 37.1604 58.972 37.3826Z" fill="#B7C2CE"/>
<path d="M66.6391 35.9517L59.7454 42.1619C59.4201 42.4548 59.6017 42.9947 60.0379 43.0316L72.6845 44.1011C73.1207 44.138 73.3903 43.6363 73.1189 43.2928L67.366 36.0132C67.1869 35.7866 66.8537 35.7584 66.6391 35.9517Z" fill="white"/>
<path d="M102.287 71.9L81.0964 55.1715C80.8793 55.0001 80.8426 54.6851 81.0144 54.4684L103.386 26.2587C103.557 26.0427 103.871 26.0061 104.087 26.1769L117.8 37.0019C118.477 37.5367 118.933 38.3029 119.08 39.1535L120.554 47.6917C120.723 48.671 120.468 49.6759 119.853 50.4559L102.989 71.8173C102.818 72.0341 102.504 72.0711 102.287 71.9Z" fill="white" stroke="#B7C2CE" stroke-linejoin="round"/>
<path d="M113.515 43.1673L118.247 37.2866C118.356 37.1521 118.572 37.2087 118.6 37.3791L120.646 49.6392C120.676 49.8196 120.468 49.9424 120.325 49.8291L113.674 44.5792C113.238 44.2347 113.166 43.6004 113.515 43.1673Z" fill="#B7C2CE"/>
<rect x="104.209" y="30.7321" width="12" height="1" rx="0.5" transform="rotate(38.2887 104.209 30.7321)" fill="#B7C2CE"/>
<rect width="5" height="1" rx="0.5" transform="matrix(0.784898 0.619625 -0.619623 0.784899 102.35 33.0868)" fill="#B7C2CE"/>
<path fill-rule="evenodd" clip-rule="evenodd" d="M97.517 40.4194L96.0454 42.2835L100.657 45.9238L102.128 44.0597L97.517 40.4194ZM95.5807 42.8722L100.192 46.5125L98.7978 48.2785L94.1865 44.6382L95.5807 42.8722ZM100.781 46.9772L99.3865 48.7432L104.292 52.6158L105.686 50.8498L100.781 46.9772ZM106.275 51.3145L104.881 53.0806L109.492 56.7209L110.886 54.9548L106.275 51.3145ZM103.827 53.2045L98.9218 49.3319L97.5276 51.0979L102.433 54.9706L103.827 53.2045ZM103.022 55.4353L104.416 53.6692L109.027 57.3095L107.633 59.0756L103.022 55.4353ZM101.969 55.5592L97.0629 51.6866L95.6687 53.4526L100.574 57.3252L101.969 55.5592ZM101.163 57.79L102.557 56.0239L107.168 59.6642L105.774 61.4303L101.163 57.79ZM100.11 57.9139L95.204 54.0413L93.7324 55.9054L98.638 59.778L100.11 57.9139ZM99.2267 60.2428L100.698 58.3786L105.31 62.0189L103.838 63.8831L99.2267 60.2428ZM98.762 60.8314L98.1733 60.3667L93.2677 56.4941L92.679 56.0294L87.8715 52.2342C87.6548 52.0631 87.6178 51.7486 87.7889 51.5319L91.2743 47.1168L91.739 46.5282L93.1331 44.7621L93.5979 44.1735L94.992 42.4075L95.4567 41.8188L97.0833 39.7584C97.2544 39.5417 97.5688 39.5047 97.7855 39.6758L102.593 43.471L103.182 43.9357L113.483 52.0683C113.7 52.2394 113.737 52.5538 113.566 52.7705L111.94 54.8309L111.475 55.4196L110.081 57.1856L109.616 57.7742L108.222 59.5403L107.757 60.129L106.363 61.895L105.898 62.4836L104.272 64.544C104.101 64.7607 103.786 64.7977 103.569 64.6266L98.762 60.8314ZM106.74 50.7259L108.211 48.8617L112.823 52.502L111.351 54.3662L106.74 50.7259ZM107.623 48.397L106.151 50.2612L101.245 46.3885L102.717 44.5244L107.623 48.397ZM93.7218 45.2269L98.3331 48.8672L96.9389 50.6332L92.3277 46.9929L93.7218 45.2269ZM91.863 47.5816L96.4742 51.2219L95.0801 52.9879L90.4688 49.3476L91.863 47.5816ZM90.0041 49.9363L94.6154 53.5765L93.1437 55.4407L88.5325 51.8004L90.0041 49.9363Z" fill="#B7C2CE"/>
<rect x="45.9927" y="6.55774" width="1" height="5" rx="0.5" transform="rotate(-24.9327 45.9927 6.55774)" fill="#B7C2CE"/>
<rect x="41" y="14.0906" width="1" height="5" rx="0.5" transform="rotate(-77.5858 41 14.0906)" fill="#B7C2CE"/>
<rect x="55.8228" y="6" width="1" height="5" rx="0.5" transform="rotate(31.6718 55.8228 6)" fill="#B7C2CE"/>
<path d="M21.2617 77.7166C20.8968 75.0164 22.9964 72.614 25.7211 72.614H56.4499C58.6563 72.614 60.6602 71.3281 61.5795 69.3223C62.3359 67.6721 63.9847 66.614 65.8001 66.614H95.5079C97.6011 66.614 99.2263 68.4391 98.9845 70.5183L95.1204 103.749C94.798 106.522 92.4491 108.614 89.6572 108.614H30.2437C27.4908 108.614 25.1619 106.579 24.7933 103.851L21.2617 77.7166Z" fill="white" stroke="#B7C2CE"/>
<circle cx="61.5" cy="100.614" r="16" fill="#DDE2E8" stroke="#778DA8"/>
<mask id="path-29-outside-1_1359_36875" maskUnits="userSpaceOnUse" x="54" y="93.114" width="15" height="15" fill="black">
<rect fill="white" x="54" y="93.114" width="15" height="15"/>
<path fill-rule="evenodd" clip-rule="evenodd" d="M63 95.614C63 94.7856 62.3284 94.114 61.5 94.114C60.6716 94.114 60 94.7856 60 95.614V99.114H56.5C55.6716 99.114 55 99.7856 55 100.614C55 101.442 55.6716 102.114 56.5 102.114H60V105.614C60 106.442 60.6716 107.114 61.5 107.114C62.3284 107.114 63 106.442 63 105.614V102.114H66.5C67.3284 102.114 68 101.442 68 100.614C68 99.7856 67.3284 99.114 66.5 99.114H63V95.614Z"/>
</mask>
<path fill-rule="evenodd" clip-rule="evenodd" d="M63 95.614C63 94.7856 62.3284 94.114 61.5 94.114C60.6716 94.114 60 94.7856 60 95.614V99.114H56.5C55.6716 99.114 55 99.7856 55 100.614C55 101.442 55.6716 102.114 56.5 102.114H60V105.614C60 106.442 60.6716 107.114 61.5 107.114C62.3284 107.114 63 106.442 63 105.614V102.114H66.5C67.3284 102.114 68 101.442 68 100.614C68 99.7856 67.3284 99.114 66.5 99.114H63V95.614Z" fill="white"/>
<path d="M60 99.114V100.114H61V99.114H60ZM60 102.114H61V101.114H60V102.114ZM63 102.114V101.114H62V102.114H63ZM63 99.114H62V100.114H63V99.114ZM61.5 95.114C61.7761 95.114 62 95.3379 62 95.614H64C64 94.2333 62.8807 93.114 61.5 93.114V95.114ZM61 95.614C61 95.3379 61.2239 95.114 61.5 95.114V93.114C60.1193 93.114 59 94.2333 59 95.614H61ZM61 99.114V95.614H59V99.114H61ZM56.5 100.114H60V98.114H56.5V100.114ZM56 100.614C56 100.338 56.2239 100.114 56.5 100.114V98.114C55.1193 98.114 54 99.2333 54 100.614H56ZM56.5 101.114C56.2239 101.114 56 100.89 56 100.614H54C54 101.995 55.1193 103.114 56.5 103.114V101.114ZM60 101.114H56.5V103.114H60V101.114ZM61 105.614V102.114H59V105.614H61ZM61.5 106.114C61.2239 106.114 61 105.89 61 105.614H59C59 106.995 60.1193 108.114 61.5 108.114V106.114ZM62 105.614C62 105.89 61.7761 106.114 61.5 106.114V108.114C62.8807 108.114 64 106.995 64 105.614H62ZM62 102.114V105.614H64V102.114H62ZM66.5 101.114H63V103.114H66.5V101.114ZM67 100.614C67 100.89 66.7761 101.114 66.5 101.114V103.114C67.8807 103.114 69 101.995 69 100.614H67ZM66.5 100.114C66.7761 100.114 67 100.338 67 100.614H69C69 99.2333 67.8807 98.114 66.5 98.114V100.114ZM63 100.114H66.5V98.114H63V100.114ZM62 95.614V99.114H64V95.614H62Z" fill="#778DA8" mask="url(#path-29-outside-1_1359_36875)"/>
<defs>
<clipPath id="clip0_1359_36875">
<rect width="22" height="22" fill="white" transform="translate(9.14404 44.3402) rotate(-27.8589)"/>
</clipPath>
</defs>
</svg>

<svg width="125" height="124" fill="none" xmlns="http://www.w3.org/2000/svg">
  <circle cx="60.5" cy="72.6" r="43" fill="#EBEEF1" stroke="#B7C2CE" opacity=".5"/>
  <path fill="#EBEEF1" stroke="#B7C2CE" d="M27.5 57.1c0-2 1.6-3.5 3.5-3.5h17.4c1.5 0 2.8.7 3.7 2l.5.7c1 1.4 2.7 2.3 4.5 2.3h33.5c1.9 0 3.4 1.5 3.5 3.4l.4 19.6h-67V57.1Z"/>
  <path fill="#fff" stroke="#B7C2CE" stroke-linejoin="round" d="M45 56.5 19.3 70.1c-.2 0-.5 0-.6-.3L1 36.2c-.1-.2 0-.5.2-.7l17.2-9c.8-.5 1.7-.6 2.5-.4l8.4 2.1c1 .3 1.8 1 2.2 1.8l13.7 25.8c.1.3 0 .6-.2.7Z"/>
  <path fill="#B7C2CE" d="M22.3 32.9 18.8 26c0-.1.1-.3.3-.2l12 3c.2 0 .2.3 0 .4l-7.4 4a1 1 0 0 1-1.4-.4Z"/>
  <rect width="14" height="1" x="5.4" y="37.3" fill="#B7C2CE" rx=".5" transform="rotate(-27.9 5.4 37.3)"/>
  <rect width="8" height="1" x="6.8" y="39.9" fill="#B7C2CE" rx=".5" transform="rotate(-27.9 6.8 40)"/>
  <g clip-path="url(#a)">
    <path fill="#B7C2CE" d="M30.3 39.8c-.6-.7-1.5-1-2.4-.8-1.7.4-7.4 3.4-7.4 3.4s-5.7 3-6.9 4.1c-.7.6-1 1.6-.8 2.5a27.1 27.1 0 0 0 4.6 8.8c.7.6 1.6 1 2.5.7 1.7-.3 7.4-3.4 7.4-3.4s5.7-3 7-4.1c.6-.6.9-1.6.7-2.5-.4-1.6-2-4.5-2-4.5s-1.5-3-2.7-4.2Zm-6.8 12.7L20.6 47l6.2.2-3.3 5.3Z"/>
  </g>
  <path fill="#fff" stroke="#B7C2CE" stroke-linejoin="round" d="m77 55-29-2.4a.5.5 0 0 1-.4-.6l3.3-37.8c0-.3.2-.5.5-.5l19.4 1.6c.9.1 1.7.5 2.3 1.1l5.9 6.3a4 4 0 0 1 1 2.7l-2.5 29.1c0 .3-.3.5-.6.5Z"/>
  <path fill="#B7C2CE" d="m70.6 22.8.7-7.5c0-.1.3-.2.4 0l8.4 9c.2.1 0 .4-.1.3l-8.5-.7a1 1 0 0 1-.9-1Z"/>
  <rect width="14" height="1" x="54" y="17.4" fill="#B7C2CE" rx=".5" transform="rotate(4.8 54 17.4)"/>
  <rect width="14" height="1" x="53.8" y="20.4" fill="#B7C2CE" rx=".5" transform="rotate(4.8 53.8 20.4)"/>
  <rect width="14" height="1" x="51.6" y="46.3" fill="#B7C2CE" rx=".5" transform="rotate(4.8 51.6 46.3)"/>
  <rect width="12" height="1" x="53.5" y="23.4" fill="#B7C2CE" rx=".5" transform="rotate(4.8 53.5 23.4)"/>
  <rect width="24" height="1" x="51.3" y="49.3" fill="#B7C2CE" rx=".5" transform="rotate(4.8 51.3 49.3)"/>
  <rect width="24" height="16" x="53.1" y="28.4" fill="#EBEEF1" rx="1" transform="rotate(4.8 53 28.4)"/>
  <circle cx="58.7" cy="32.9" r="2" fill="#B7C2CE" transform="rotate(4.8 58.7 32.9)"/>
  <path fill="#B7C2CE" d="m59 37.4-4.3 4.4c-.3.3-.2.8.3.8l7.8.7c.4 0 .7-.5.5-.8l-3.6-5a.5.5 0 0 0-.7-.1Z"/>
  <path fill="#fff" d="m66.6 36-6.9 6.2c-.3.3-.1.8.3.8l12.7 1.1c.4 0 .7-.5.4-.8L67.4 36a.5.5 0 0 0-.8 0Z"/>
  <path fill="#fff" stroke="#B7C2CE" stroke-linejoin="round" d="M102.3 71.9 81 55.2a.5.5 0 0 1 0-.7l22.3-28.2c.2-.3.5-.3.7-.1L117.8 37c.7.5 1.1 1.3 1.3 2.2l1.5 8.5c.1 1-.1 2-.7 2.8l-17 21.3c0 .2-.4.3-.6.1Z"/>
  <path fill="#B7C2CE" d="m113.5 43.2 4.7-6c.2 0 .4 0 .4.2l2 12.2c0 .2-.1.3-.3.2l-6.6-5.2a1 1 0 0 1-.2-1.4Z"/>
  <rect width="12" height="1" x="104.2" y="30.7" fill="#B7C2CE" rx=".5" transform="rotate(38.3 104.2 30.7)"/>
  <rect width="5" height="1" fill="#B7C2CE" rx=".5" transform="rotate(38.3 3.5 164)"/>
  <path fill="#B7C2CE" fill-rule="evenodd" d="M97.5 40.4 96 42.3l4.7 3.6 1.4-1.8-4.6-3.7Zm-2 2.5 4.7 3.6-1.4 1.8-4.6-3.7 1.4-1.7Zm5.3 4-1.4 1.8 4.9 4 1.4-1.9-5-3.8Zm5.5 4.4-1.4 1.8 4.6 3.6 1.4-1.7-4.6-3.7Zm-2.5 1.9L99 49.3l-1.4 1.8 5 3.9 1.3-1.8Zm-.8 2.2 1.4-1.7 4.6 3.6-1.4 1.8-4.6-3.7Zm-1 .2-5-4-1.3 1.9 4.9 3.8 1.4-1.7Zm-.8 2.2 1.4-1.8 4.6 3.7-1.4 1.7-4.6-3.6Zm-1 .1-5-3.9-1.5 2 5 3.8 1.4-1.9Zm-1 2.3 1.5-1.8 4.6 3.6-1.5 1.9-4.6-3.7Zm-.4.6-.6-.4-5-4-.5-.4-4.8-3.8a.5.5 0 0 1-.1-.7l3.5-4.4.4-.6 1.4-1.7.5-.6 1.4-1.8.5-.6 1.6-2c.2-.3.5-.3.7-.1l4.8 3.8.6.4 10.3 8.2c.2.1.2.5 0 .7l-1.6 2-.4.6-1.4 1.8-.5.6-1.4 1.7-.4.6-1.4 1.8-.5.6-1.6 2c-.2.3-.5.3-.7.1l-4.8-3.8Zm8-10 1.4-2 4.6 3.7-1.4 1.9-4.7-3.7Zm.8-2.4-1.4 1.9-5-4 1.5-1.8 5 3.9Zm-13.9-3.2 4.6 3.7-1.4 1.7-4.6-3.6 1.4-1.8ZM92 47.6l4.6 3.6L95 53l-4.6-3.7 1.4-1.7Zm-2 2.3 4.6 3.7-1.5 1.8-4.6-3.6 1.5-1.9Z" clip-rule="evenodd"/>
  <rect width="1" height="5" x="46" y="6.6" fill="#B7C2CE" rx=".5" transform="rotate(-25 46 6.6)"/>
  <rect width="1" height="5" x="41" y="14.1" fill="#B7C2CE" rx=".5" transform="rotate(-77.6 41 14)"/>
  <rect width="1" height="5" x="55.8" y="6" fill="#B7C2CE" rx=".5" transform="rotate(31.7 55.8 6)"/>
  <path fill="#fff" stroke="#B7C2CE" d="M21.3 77.7a4.5 4.5 0 0 1 4.4-5h30.7c2.3 0 4.3-1.4 5.2-3.4a4.6 4.6 0 0 1 4.2-2.7h29.7c2.1 0 3.7 1.8 3.5 4l-4 33a5.5 5.5 0 0 1-5.4 5H30.2c-2.7 0-5-2.1-5.4-4.8l-3.5-26.2Z"/>
  <circle cx="61.5" cy="100.6" r="16" fill="#DDE2E8" stroke="#778DA8"/>
  <mask id="b" width="15" height="15" x="54" y="93.1" fill="#000" maskUnits="userSpaceOnUse">
    <path fill="#fff" d="M54 93.1h15v15H54z"/>
    <path fill-rule="evenodd" d="M63 95.6a1.5 1.5 0 0 0-3 0v3.5h-3.5a1.5 1.5 0 0 0 0 3H60v3.5a1.5 1.5 0 0 0 3 0v-3.5h3.5a1.5 1.5 0 0 0 0-3H63v-3.5Z" clip-rule="evenodd"/>
  </mask>
  <path fill="#fff" fill-rule="evenodd" d="M63 95.6a1.5 1.5 0 0 0-3 0v3.5h-3.5a1.5 1.5 0 0 0 0 3H60v3.5a1.5 1.5 0 0 0 3 0v-3.5h3.5a1.5 1.5 0 0 0 0-3H63v-3.5Z" clip-rule="evenodd"/>
  <path fill="#778DA8" d="M60 99.1v1h1v-1h-1Zm0 3h1v-1h-1v1Zm3 0v-1h-1v1h1Zm0-3h-1v1h1v-1Zm-1.5-4c.3 0 .5.2.5.5h2c0-1.4-1.1-2.5-2.5-2.5v2Zm-.5.5c0-.3.2-.5.5-.5v-2a2.5 2.5 0 0 0-2.5 2.5h2Zm0 3.5v-3.5h-2v3.5h2Zm-4.5 1H60v-2h-3.5v2Zm-.5.5c0-.3.2-.5.5-.5v-2a2.5 2.5 0 0 0-2.5 2.5h2Zm.5.5a.5.5 0 0 1-.5-.5h-2c0 1.4 1.1 2.5 2.5 2.5v-2Zm3.5 0h-3.5v2H60v-2Zm1 4.5v-3.5h-2v3.5h2Zm.5.5a.5.5 0 0 1-.5-.5h-2c0 1.4 1.1 2.5 2.5 2.5v-2Zm.5-.5c0 .3-.2.5-.5.5v2c1.4 0 2.5-1.1 2.5-2.5h-2Zm0-3.5v3.5h2v-3.5h-2Zm4.5-1H63v2h3.5v-2Zm.5-.5c0 .3-.2.5-.5.5v2c1.4 0 2.5-1.1 2.5-2.5h-2Zm-.5-.5c.3 0 .5.2.5.5h2c0-1.4-1.1-2.5-2.5-2.5v2Zm-3.5 0h3.5v-2H63v2Zm-1-4.5v3.5h2v-3.5h-2Z" mask="url(#b)"/>
  <defs>
    <clipPath id="a">
      <path fill="#fff" d="M0 0h22v22H0z" transform="rotate(-27.9 94 3.7)"/>
    </clipPath>
  </defs>
</svg>
